media/img/logos/pocket/logo.svg

<svg viewBox="0 0 20 20" width="20" height="20" xmlns="http://www.w3.org/2000/svg"><path fill="#fff" d="M2.795 6.185h14.427v8.087H2.795z"/><path fill="#ee4056" d="M15.7 9.1L11 13.4c-.2.2-.6.4-.9.4-.4 0-.7-.1-1-.4L4.4 9.1c-.5-.5-.5-1.3 0-1.9.5-.5 1.4-.5 1.9 0l3.7 3.4 3.8-3.4c.5-.5 1.3-.5 1.9 0 .5.5.5 1.4 0 1.9M18.1 2H1.9C.9 2 0 2.7 0 3.8v5.7c.2 5.4 4.6 9.6 10 9.5 5.4.1 9.8-4.1 10-9.5V3.8c0-1-.9-1.8-1.9-1.8"/></svg>

<?xml version="1.0" encoding="utf-8"?>
<svg viewBox="0 0 20 20" width="20px" height="20px" xmlns="http://www.w3.org/2000/svg">
  <rect x="2.795" y="6.185" width="14.427" height="8.087" style="fill: rgb(255, 255, 255);"/>
  <path fill="#ee4056" d="M 15.7 9.1 L 11 13.4 C 10.8 13.6 10.4 13.8 10.1 13.8 C 9.7 13.8 9.4 13.7 9.1 13.4 L 4.4 9.1 C 3.9 8.6 3.9 7.8 4.4 7.2 C 4.9 6.7 5.8 6.7 6.3 7.2 L 10 10.6 L 13.8 7.2 C 14.3 6.7 15.1 6.7 15.7 7.2 C 16.2 7.7 16.2 8.6 15.7 9.1 M 18.1 2 L 1.9 2 C 0.9 2 0 2.7 0 3.8 L 0 9.5 C 0.2 14.9 4.6 19.1 10 19 C 15.4 19.1 19.8 14.9 20 9.5 L 20 3.8 C 20 2.8 19.1 2 18.1 2"/>
</svg>
